!!!PDT:	1923
!!!LANG: Non-Tone
!!!LING_GROUP: Siouan
!!!REG: Dakotas
!!!COM: Anon.
!!!OTL: My Daughter
!!!ODT: <1918//
!!!MPN: Wopite [Scattered Corn, Mrs. Holding Eagle]
!!!MLC: Fort Berthold Reservation, North Dakota, United States of America
!! Song was recorded during either the summer of 1912, 1915, or 1918.
!!!AGN: monody
!!!SOCIAL_FUNCTION: Mandan Goose Women Society
!!!AMT: irregular
!!!RWG: Transcribed pitches, durations, and meters are only approximate.
!! Drum Tempo: MM240
**kern
*ICvox
*Ifemale
*clefG2
*k[b-e-a-d-g-]
*M3/4
*MM240
=1-
8b-
8b-
4b-
4g-
=2
16b-
8.g-
4g-
4g-
=3
8b-
8b-
4b-
4b-
=4
4b-
4dd-
4b-
=5
8dd-
8dd-
4b-
4g-
=6
16b-
8.g-
4g-
4g-
=7
8g-
8g-
4f-
4r
=8
8g-
8g-
4g-
4g-
=9
2.a-
=10
8a-
8g-
4g-
4e-
=11
2.e-
=12
8g-
8g-
4g-
4r
=13
4e-
2g-
=14
8g-
8g-
4e-
4d-
=15
8e-
8e-
2d-
=16
2.B-
=17
8d-
8d-
2d-
=18
2.e-
=19
8e-
8e-
4d-
4B-
=20
8d-
8d-
4B-
4B-
=21
2.B-
=22
2.B-
=23
2.r;
=24
8g-
8g-
4g-
4e-
=25
16g-
8.e-
4e-
4e-
=26
2g-
4g-
=27
2.g-
=28
4g-
2a-
=29
(8a-
8g-)
2e-
=30
2.e-
=31
4g-
2g-
=32
4e-
2g-
=33
(8a-
8g-
4e-
4d-)
=34
4d-
2d-
=35
2.B-
=36
2.d-
=37
2.e-
=38
8e-
8e-
4d-
4B-
=39
8d-
8d-
4B-
4B-
=40
2.B-
=41
2.B-
==
*-
!!!CNT: Mandan
!!!TXO: Mandan
!!!OCY: United States
!!!OCL: Frances Densmore
!!!YOR: Frances Densmore, "Mandan and Hidatsa Music",
!!!YOR: Bulletin 80, page 44, No. 3
!!!PPR: Smithsonian Institution, Bureau of American Ethnology
!!!PPR: Government Printing Office
!!!PDT: 1923
!!!PPP: Washington, DC, United States of America
!!!YEC: Electronic Copyright 2000 David Huron
!!!YER: August 2000
!!!YEN: United States of America
!!!ENC: David Huron
!!!RDT: August 16, 2000
!!!EEV: Release 1.0
!!!AIN: tom, vox
